X:1
T:92
L:1/8
M:2/4
K:C
V:1 treble nm="Piano" snm="Pno."
V:1
 E/F/ G2 G/F/ | EG c z | E G2 G/E/ | FD !breath!C2 | E G2 G/F/ | EG c z | E G2 G/E/ | %7
 FD !breath!C2 | E/F/E/D/ EG | D2 DE/F/ | .E.E FD | C C2 !breath!E | E/F/E/D/ EG | D2 DD/F/ | %14
 .E.E FD | CC C2 |] %16

